X: 38250
T: Squirrel's Nest, The
R: jig
M: 6/8
K: Gmajor
|:Bdd dBA|Bdd dBA|Bee efg|fed e2f|
gbg edB|BAB GAc|BAB GED|EGG G2A:|
|:BAB GED|EGG G2A|B3 GED|EAA ABc|
BAB GED|EGG GAB|dBe dBA|BGG G3:|

